X: 34037
T: Reel De Chicoutimi
R: reel
M: 4/4
K: Gmajor
|:GBAB GDDD|GBAB GDDD|GDGA B2dd|1 dBAB G4:|2 dBAB G3z||
d|:BGGG BGGc|BGGG EDEd|BGGG BGGB|1 BGEG D3d:|2 BGEG D4||
|:GBAB GDDD|GBAB GDDD|GDGA B2dd|1 dBAB G4:|2 dBAd G3z||

